X: 23874
T: Llanthony Abbey
R: hornpipe
M: 4/4
K: Dmajor
A>FA>d f>dA>F|G>EG>c e>cG>E|F>D (3FGA d>A (3FED|E2 (3AAA A2 (3EFG|
(3AAA F>A f>dA>F|(3GGG E>c e>c (3GFE|F>dF>d E>A (3cde|d2 D2 D2:|
G>EF>G ABcd|e>dc>B A>G (3GFE|F>DE>F GABc|(3ddd A>G (3FFF (3DEF|
G2 (3EFG A2 (3Bcd|e>d (3dcB A>G (3GFE|F2 d2 E>Ac>e|d2 (3DDD D2:|

